X: 71
T:Miss Gayton's Hp,aka. WI.071
M:C|
Q:180
C:"as played at the theatre, Carlisle", untitled in MS.
S:Wm Irwin, Folio MS, c1850. AGG's Transcription
R:Hornpipe
O:England
A:Lake District
Z:vmp.Chris Partington.2005
K:G
dc|Bdg2 g2dc|Bdg2 g2dc|Bbag fedc|Bbag fedc|!
Bdg2 g2dc|Bdg2 g2dc|efge fgaf|g2b2g2:|!
|:dg|bgbg afaf|gfge d2B2|cdec BcdB|AGAB A2ga|!
bgbg afaf|gfge d2B2|efge fgaf|g2b2g2:|]
